dist/svg/static/myAudi-destinations-large.svg

<svg xmlns="http://www.w3.org/2000/svg" width="48" height="48" viewBox="0 0 48 48"><g fill="none" stroke="currentColor"><path d="M38.5 19.58c-3.929.038-6.957 2.991-7 6.92 0 3.88 7 14 7 14s7-10.12 7-14c-.043-3.929-3.071-6.882-7-6.92z"/><path d="M38.5 23.5a3 3 0 1 1 .001 5.999A3 3 0 0 1 38.5 23.5z"/><g stroke-miterlimit="10"><path d="M33 40.5H11.5V27.25s.2-2.75 3.5-2.75h12M27.5 20.5h-7c-1.65 0-3-1.35-3-3v-7c0-1.65 1.35-3 3-3h7c1.65 0 3 1.35 3 3v7c0 1.65-1.35 3-3 3z"/></g></g></svg>

<?xml version="1.0" encoding="UTF-8" standalone="no"?>
<svg width="48px" height="48px" viewBox="0 0 48 48" version="1.1" xmlns="http://www.w3.org/2000/svg" xmlns:xlink="http://www.w3.org/1999/xlink">
    <!-- Generator: sketchtool 46.2 (44496) - http://www.bohemiancoding.com/sketch -->
    <title>myaudi-destinations-large</title>
    <desc>Created with sketchtool.</desc>
    <defs></defs>
    <g id="icons-published" stroke="none" stroke-width="1" fill="none" fill-rule="evenodd">
        <g id="briefing" transform="translate(-1440.000000, -1050.000000)"></g>
        <g id="myaudi-destinations-large" stroke="#000000">
            <path d="M38.5,19.6 C34.6,19.6 31.5,22.6 31.5,26.5 C31.5,30.4 38.5,40.5 38.5,40.5 C38.5,40.5 45.5,30.4 45.5,26.5 C45.5,22.6 42.4,19.6 38.5,19.6 Z" id="Shape"></path>
            <path d="M38.5,23.5 C40.2,23.5 41.5,24.8 41.6,26.4 C41.6,28.1 40.3,29.4 38.7,29.5 C38.7,29.5 38.6,29.5 38.6,29.5 C36.9,29.5 35.6,28.1 35.7,26.4 C35.6,24.8 36.9,23.5 38.5,23.5 Z" id="Shape"></path>
            <path d="M27.5,20.5 L20.5,20.5 C18.9,20.5 17.5,19.1 17.5,17.5 L17.5,10.5 C17.5,8.9 18.9,7.5 20.5,7.5 L27.5,7.5 C29.1,7.5 30.5,8.9 30.5,10.5 L30.5,17.5 C30.5,19.1 29.1,20.5 27.5,20.5 Z" id="Shape"></path>
            <path d="M33,40.5 L11.5,40.5 L11.5,27.2 C11.5,27.2 11.7,24.4 15,24.4 L27,24.4" id="Path"></path>
        </g>
    </g>
</svg>
